app/dist/common/images/rewalk.svg

<svg height="18" viewBox="0 0 18 18" width="18" xmlns="http://www.w3.org/2000/svg"><path d="m0 0h18v18h-18z" fill="#f0f3fa"/><path d="m5.67 7.1c.56 0 1.1.07 1.1.54s-.51.54-1.1.54zm1.66 2.17c.67-.37 1.11-.95 1.11-1.63 0-.9-.56-1.64-2.22-1.64h-2.22v6h1.67v-2.18h.39l1.27 2.18h1.67z" fill="#747275"/><path d="m12.6 12h-1.88c-.18-1.52-.32-2.64-.47-4.22-.2 1.58-.32 2.64-.47 4.22h-1.87l-1.41-6h1.4c.28 1.44.67 2.95.94 4.36.26-1.46.68-2.91.94-4.36h.94c.25 1.46.69 2.92.95 4.36.26-1.44.65-2.92.92-4.36h1.41z" fill="#ddc20c"/><path d="m8.01 6.53c.1.53.23 1.07.35 1.6-.16.47-.53.86-1.03 1.14l1.67 2.73h-1.1l-1.4-6c.72.05 1.2.24 1.51.53z" fill="#706901"/></svg>

<!-- by TradingView --><svg xmlns="http://www.w3.org/2000/svg" width="18" height="18" viewBox="0 0 18 18"><path fill="#F0F3FA" d="M0 0h18v18H0z"/><path d="M5.67 7.1c.56 0 1.1.07 1.1.54 0 .47-.51.54-1.1.54V7.1zm1.66 2.17C8 8.9 8.44 8.32 8.44 7.64c0-.9-.56-1.64-2.22-1.64H4v6h1.67V9.82h.39L7.33 12H9L7.33 9.27z" fill="#747275"/><path d="M12.6 12h-1.88c-.18-1.52-.32-2.64-.47-4.22-.2 1.58-.32 2.64-.47 4.22H7.91L6.5 6h1.4c.28 1.44.67 2.95.94 4.36.26-1.46.68-2.91.94-4.36h.94c.25 1.46.69 2.92.95 4.36.26-1.44.65-2.92.92-4.36H14l-1.4 6z" fill="#DDC20C"/><path d="M8.01 6.53c.1.53.23 1.07.35 1.6-.16.47-.53.86-1.03 1.14L9 12H7.9L6.5 6c.72.05 1.2.24 1.51.53z" fill="#706901"/></svg>
